src/assets/facebook.svg

<svg width="14" height="26" viewBox="0 0 14 26" fill="none" xmlns="http://www.w3.org/2000/svg">
<path fill-rule="evenodd" clip-rule="evenodd" d="M9.53385 9.0765V6.59603C9.53385 5.47624 9.79115 4.90983 11.599 4.90983H13.8672V0.743164H10.0823C5.44427 0.743164 3.91406 2.78743 3.91406 6.29655V9.0765H0.867187V13.2432H3.91406V25.7432H9.53385V13.2432H13.3526L13.8672 9.0765H9.53385Z" fill="#2196F3"/>
</svg>

<svg width="14" height="26" fill="none" xmlns="http://www.w3.org/2000/svg"><path fill-rule="evenodd" clip-rule="evenodd" d="M9.534 9.076v-2.48c0-1.12.257-1.686 2.065-1.686h2.268V.743h-3.785c-4.638 0-6.168 2.044-6.168 5.554v2.78H.867v4.166h3.047v12.5h5.62v-12.5h3.819l.514-4.167H9.534z" fill="#2196F3"/></svg>
